assets/illustrations/logo-integration/blip-instagram.svg

<svg width="277" height="238" viewBox="0 0 277 238" fill="none" xmlns="http://www.w3.org/2000/svg">
<path fill-rule="evenodd" clip-rule="evenodd" d="M201.308 99.476C202.325 99.0438 203.499 99.5174 203.931 100.534L213.268 122.488C213.7 123.504 213.226 124.679 212.21 125.111C211.193 125.543 210.019 125.07 209.587 124.053L200.25 102.099C199.818 101.083 200.292 99.9083 201.308 99.476Z" fill="#202C44"/>
<path fill-rule="evenodd" clip-rule="evenodd" d="M185.064 159.915C185.064 161.02 184.169 161.915 183.064 161.915H157.064C155.96 161.915 155.064 161.02 155.064 159.915C155.064 158.81 155.96 157.915 157.064 157.915H183.064C184.169 157.915 185.064 158.81 185.064 159.915Z" fill="#202C44"/>
<path d="M158.129 158.004C158.129 201.652 122.745 237.036 79.0967 237.036C35.4484 237.036 0.0644531 201.652 0.0644531 158.004C0.0644531 114.356 35.4484 78.9717 79.0967 78.9717C122.745 78.9717 158.129 114.356 158.129 158.004Z" fill="url(#paint0_linear_12970_10762)"/>
<path d="M66.4925 158.19C66.4925 151.187 72.1681 145.508 79.1712 145.508C86.1742 145.508 91.8529 151.187 91.8529 158.19C91.8529 165.193 86.1742 170.872 79.1712 170.872C72.1681 170.872 66.4925 165.193 66.4925 158.19ZM59.6371 158.19C59.6371 168.979 68.3825 177.724 79.1712 177.724C89.9599 177.724 98.7053 168.979 98.7053 158.19C98.7053 147.401 89.9599 138.656 79.1712 138.656C68.3825 138.656 59.6374 147.401 59.6374 158.19H59.6371ZM94.9139 137.881C94.9135 138.784 95.1809 139.667 95.6822 140.418C96.1835 141.169 96.8962 141.754 97.7303 142.1C98.5643 142.446 99.4821 142.537 100.368 142.361C101.253 142.185 102.067 141.751 102.706 141.112C103.344 140.474 103.779 139.661 103.956 138.776C104.132 137.89 104.042 136.972 103.697 136.138C103.352 135.304 102.767 134.59 102.017 134.088C101.266 133.587 100.384 133.318 99.4807 133.318H99.4789C98.2687 133.319 97.1081 133.8 96.2522 134.655C95.3963 135.511 94.9149 136.671 94.9139 137.881ZM63.8022 189.156C60.0932 188.987 58.0773 188.369 56.7376 187.847C54.9615 187.155 53.6943 186.332 52.3619 185.001C51.0295 183.671 50.2048 182.405 49.5164 180.629C48.9941 179.29 48.3763 177.273 48.2077 173.564C48.0233 169.554 47.9865 168.35 47.9865 158.191C47.9865 148.032 48.0263 146.83 48.2077 142.817C48.3766 139.108 48.999 137.096 49.5164 135.752C50.2078 133.976 51.0313 132.709 52.3619 131.377C53.6925 130.044 54.9585 129.22 56.7376 128.531C58.0767 128.009 60.0932 127.391 63.8022 127.223C67.8121 127.038 69.0167 127.001 79.1712 127.001C89.3256 127.001 90.5314 127.041 94.5447 127.223C98.2537 127.392 100.266 128.014 101.609 128.532C103.385 129.22 104.653 130.047 105.985 131.377C107.317 132.708 108.139 133.977 108.831 135.753C109.353 137.092 109.971 139.109 110.139 142.818C110.324 146.831 110.36 148.032 110.36 158.191C110.36 168.35 110.324 169.551 110.139 173.565C109.97 177.274 109.349 179.29 108.831 180.629C108.139 182.405 107.316 183.673 105.985 185.002C104.654 186.331 103.385 187.156 101.609 187.847C100.27 188.37 98.2537 188.988 94.5447 189.156C90.5348 189.341 89.3302 189.377 79.1712 189.377C69.0121 189.377 67.8109 189.341 63.8022 189.156V189.156ZM63.4872 120.378C59.4374 120.563 56.6701 121.205 54.2533 122.145C51.752 123.116 49.6317 124.419 47.5144 126.533C45.3972 128.647 44.0976 130.768 43.1265 133.272C42.1861 135.69 41.544 138.456 41.3595 142.506C41.1721 146.562 41.1292 147.859 41.1292 158.19C41.1292 168.521 41.1721 169.818 41.3595 173.874C41.544 177.924 42.1861 180.69 43.1265 183.108C44.0976 185.609 45.3975 187.734 47.5144 189.847C49.6314 191.96 51.749 193.261 54.2533 194.235C56.6746 195.175 59.4374 195.817 63.4872 196.002C67.5455 196.186 68.8402 196.232 79.1712 196.232C89.5022 196.232 90.7989 196.189 94.8551 196.002C98.9052 195.817 101.671 195.175 104.089 194.235C106.59 193.261 108.711 191.961 110.828 189.847C112.945 187.733 114.242 185.609 115.216 183.108C116.156 180.69 116.801 177.924 116.983 173.874C117.167 169.815 117.21 168.521 117.21 158.19C117.21 147.859 117.167 146.562 116.983 142.506C116.798 138.456 116.156 135.689 115.216 133.272C114.242 130.771 112.942 128.65 110.828 126.533C108.714 124.416 106.59 123.116 104.092 122.145C101.671 121.205 98.9049 120.56 94.8582 120.378C90.8014 120.193 89.5052 120.148 79.1757 120.148C68.8463 120.148 67.5471 120.191 63.4887 120.378" fill="white"/>
<path d="M276.064 159.415C276.064 185.096 255.246 205.915 229.564 205.915C203.883 205.915 183.064 185.096 183.064 159.415C183.064 133.734 203.883 112.915 229.564 112.915C255.246 112.915 276.064 133.734 276.064 159.415Z" fill="white"/>
<path fill-rule="evenodd" clip-rule="evenodd" d="M229.564 201.915C253.037 201.915 272.064 182.887 272.064 159.415C272.064 135.943 253.037 116.915 229.564 116.915C206.092 116.915 187.064 135.943 187.064 159.415C187.064 182.887 206.092 201.915 229.564 201.915ZM229.564 205.915C255.246 205.915 276.064 185.096 276.064 159.415C276.064 133.734 255.246 112.915 229.564 112.915C203.883 112.915 183.064 133.734 183.064 159.415C183.064 185.096 203.883 205.915 229.564 205.915Z" fill="#202C44"/>
<path d="M229.565 187.815C245.249 187.815 257.965 175.1 257.965 159.415C257.965 143.73 245.249 131.015 229.565 131.015C213.88 131.015 201.165 143.73 201.165 159.415C201.165 175.1 213.88 187.815 229.565 187.815Z" fill="#1977F3"/>
<path d="M240.619 167.626L241.877 159.415H234.002V154.087C234.002 151.843 235.1 149.65 238.63 149.65H242.213V142.661C242.213 142.661 238.962 142.106 235.855 142.106C229.369 142.106 225.127 146.036 225.127 153.157V159.415H217.915V167.626H225.127V187.472C226.573 187.699 228.055 187.815 229.565 187.815C231.074 187.815 232.556 187.695 234.002 187.472V167.626H240.619Z" fill="white"/>
<path d="M238.968 56.4516C238.968 87.6289 213.693 112.903 182.516 112.903C151.339 112.903 126.064 87.6289 126.064 56.4516C126.064 25.2742 151.339 0 182.516 0C213.693 0 238.968 25.2742 238.968 56.4516Z" fill="#00C6D7"/>
<path fill-rule="evenodd" clip-rule="evenodd" d="M182.516 108.903C211.484 108.903 234.968 85.4198 234.968 56.4516C234.968 27.4834 211.484 4 182.516 4C153.548 4 130.064 27.4834 130.064 56.4516C130.064 85.4198 153.548 108.903 182.516 108.903ZM182.516 112.903C213.693 112.903 238.968 87.6289 238.968 56.4516C238.968 25.2742 213.693 0 182.516 0C151.339 0 126.064 25.2742 126.064 56.4516C126.064 87.6289 151.339 112.903 182.516 112.903Z" fill="#202C44"/>
<path d="M181.663 29.3577C175.401 29.3577 168.92 30.3887 164.478 33.1135C157.269 37.6057 155.157 46.3693 155.449 54.4701C155.667 61.4662 157.488 68.9778 162.439 74.1329C167.1 79.067 176.712 81.2763 183.338 81.2763C183.629 81.2763 183.921 81.4972 183.921 81.8655V88.9352C183.921 89.598 184.43 90.1872 185.159 90.1872C185.231 90.1872 185.231 90.1872 185.304 90.1872C185.595 90.1872 185.814 90.0399 185.96 89.8926C189.236 87.0205 192.586 84.0748 195.79 81.129C198.848 78.2569 202.344 75.3112 204.674 71.8499C209.698 64.5592 210.499 54.3228 208.824 45.7802C207.222 37.6057 201.47 32.2298 193.46 30.536C190.037 29.7995 185.887 29.3577 181.663 29.3577Z" fill="white"/>
<defs>
<linearGradient id="paint0_linear_12970_10762" x1="41.5645" y1="198.972" x2="114.064" y2="119.472" gradientUnits="userSpaceOnUse">
<stop stop-color="#FA8D24"/>
<stop offset="1" stop-color="#B83392"/>
</linearGradient>
</defs>
</svg>

<svg width="277" height="238" fill="none" xmlns="http://www.w3.org/2000/svg"><path fill-rule="evenodd" clip-rule="evenodd" d="M201.308 99.476a2 2 0 0 1 2.623 1.058l9.337 21.954a2 2 0 0 1-3.681 1.565l-9.337-21.954a2 2 0 0 1 1.058-2.623Zm-16.244 60.439a2 2 0 0 1-2 2h-26a2 2 0 0 1 0-4h26a2 2 0 0 1 2 2Z" fill="#202C44"/><path d="M158.129 158.004c0 43.648-35.384 79.032-79.032 79.032-43.649 0-79.033-35.384-79.033-79.032 0-43.648 35.384-79.032 79.033-79.032 43.648 0 79.032 35.384 79.032 79.032Z" fill="url(#blip_instagram__a)"/><path d="M66.493 158.19c0-7.003 5.675-12.682 12.678-12.682 7.003 0 12.682 5.679 12.682 12.682s-5.679 12.682-12.682 12.682-12.678-5.679-12.678-12.682Zm-6.856 0c0 10.789 8.745 19.534 19.534 19.534s19.534-8.745 19.534-19.534-8.745-19.534-19.534-19.534-19.534 8.745-19.534 19.534Zm35.277-20.309a4.566 4.566 0 0 0 7.792 3.231 4.572 4.572 0 0 0 1.25-2.336 4.571 4.571 0 0 0-1.939-4.688 4.57 4.57 0 0 0-2.536-.77h-.002a4.568 4.568 0 0 0-4.565 4.563Zm-31.112 51.275c-3.709-.169-5.725-.787-7.064-1.309-1.776-.692-3.044-1.515-4.376-2.846-1.333-1.33-2.157-2.596-2.846-4.372-.522-1.339-1.14-3.356-1.308-7.065-.185-4.01-.221-5.214-.221-15.373 0-10.159.04-11.361.22-15.374.17-3.709.792-5.721 1.31-7.065.69-1.776 1.514-3.043 2.845-4.375 1.33-1.333 2.596-2.157 4.376-2.846 1.339-.522 3.355-1.14 7.064-1.308 4.01-.185 5.215-.222 15.37-.222 10.154 0 11.36.04 15.373.222 3.709.169 5.721.791 7.064 1.309 1.776.688 3.044 1.515 4.376 2.845 1.332 1.331 2.154 2.6 2.846 4.376.522 1.339 1.14 3.356 1.308 7.065.185 4.013.221 5.214.221 15.373 0 10.159-.036 11.36-.221 15.374-.169 3.709-.79 5.725-1.308 7.064-.692 1.776-1.515 3.044-2.846 4.373-1.331 1.329-2.6 2.154-4.376 2.845-1.339.523-3.355 1.141-7.064 1.309-4.01.185-5.215.221-15.374.221s-11.36-.036-15.369-.221Zm-.315-68.778c-4.05.185-6.817.827-9.234 1.767-2.501.971-4.621 2.274-6.739 4.388-2.117 2.114-3.416 4.235-4.388 6.739-.94 2.418-1.582 5.184-1.767 9.234-.187 4.056-.23 5.353-.23 15.684s.043 11.628.23 15.684c.185 4.05.827 6.816 1.767 9.234.972 2.501 2.272 4.626 4.388 6.739 2.117 2.113 4.235 3.414 6.74 4.388 2.42.94 5.183 1.582 9.233 1.767 4.059.184 5.353.23 15.684.23s11.628-.043 15.684-.23c4.05-.185 6.816-.827 9.234-1.767 2.501-.974 4.622-2.274 6.739-4.388s3.414-4.238 4.388-6.739c.94-2.418 1.585-5.184 1.767-9.234.184-4.059.227-5.353.227-15.684s-.043-11.628-.227-15.684c-.185-4.05-.827-6.817-1.767-9.234-.974-2.501-2.274-4.622-4.388-6.739s-4.238-3.417-6.736-4.388c-2.421-.94-5.187-1.585-9.234-1.767-4.057-.185-5.353-.23-15.682-.23-10.33 0-11.629.043-15.687.23m212.575 39.037c0 25.681-20.818 46.5-46.5 46.5-25.681 0-46.5-20.819-46.5-46.5s20.819-46.5 46.5-46.5c25.682 0 46.5 20.819 46.5 46.5Z" fill="#fff"/><path fill-rule="evenodd" clip-rule="evenodd" d="M229.564 201.915c23.473 0 42.5-19.028 42.5-42.5s-19.027-42.5-42.5-42.5c-23.472 0-42.5 19.028-42.5 42.5s19.028 42.5 42.5 42.5Zm0 4c25.682 0 46.5-20.819 46.5-46.5s-20.818-46.5-46.5-46.5c-25.681 0-46.5 20.819-46.5 46.5s20.819 46.5 46.5 46.5Z" fill="#202C44"/><path d="M229.565 187.815c15.684 0 28.4-12.715 28.4-28.4 0-15.685-12.716-28.4-28.4-28.4-15.685 0-28.4 12.715-28.4 28.4 0 15.685 12.715 28.4 28.4 28.4Z" fill="#1977F3"/><path d="m240.619 167.626 1.258-8.211h-7.875v-5.328c0-2.244 1.098-4.437 4.628-4.437h3.583v-6.989s-3.251-.555-6.358-.555c-6.486 0-10.728 3.93-10.728 11.051v6.258h-7.212v8.211h7.212v19.846a28.6 28.6 0 0 0 4.438.343c1.509 0 2.991-.12 4.437-.343v-19.846h6.617Z" fill="#fff"/><path d="M238.968 56.452c0 31.177-25.275 56.451-56.452 56.451s-56.452-25.274-56.452-56.451C126.064 25.274 151.339 0 182.516 0s56.452 25.274 56.452 56.452Z" fill="#00C6D7"/><path fill-rule="evenodd" clip-rule="evenodd" d="M182.516 108.903c28.968 0 52.452-23.483 52.452-52.451C234.968 27.483 211.484 4 182.516 4c-28.968 0-52.452 23.483-52.452 52.452 0 28.968 23.484 52.451 52.452 52.451Zm0 4c31.177 0 56.452-25.274 56.452-56.451C238.968 25.274 213.693 0 182.516 0s-56.452 25.274-56.452 56.452c0 31.177 25.275 56.451 56.452 56.451Z" fill="#202C44"/><path d="M181.663 29.358c-6.262 0-12.743 1.03-17.185 3.756-7.209 4.492-9.321 13.255-9.029 21.356.218 6.996 2.039 14.508 6.99 19.663 4.661 4.934 14.273 7.143 20.899 7.143.291 0 .583.221.583.59v7.07c0 .662.509 1.251 1.238 1.251h.145c.291 0 .51-.147.656-.294 3.276-2.873 6.626-5.818 9.83-8.764 3.058-2.872 6.554-5.818 8.884-9.28 5.024-7.29 5.825-17.526 4.15-26.069-1.602-8.174-7.354-13.55-15.364-15.244-3.423-.737-7.573-1.178-11.797-1.178Z" fill="#fff"/><defs><linearGradient id="blip_instagram__a" x1="41.565" y1="198.972" x2="114.064" y2="119.472" gradientUnits="userSpaceOnUse"><stop stop-color="#FA8D24"/><stop offset="1" stop-color="#B83392"/></linearGradient></defs></svg>
